public/img/illustrations/tiktok-sticker.svg

<svg width="86" height="86" viewBox="0 0 86 86" fill="none" xmlns="http://www.w3.org/2000/svg">
<path d="M70.6138 84.5218C52.2212 86.4871 33.7782 86.4871 15.3856 84.5218C8.04541 83.7324 2.25049 77.9543 1.47783 70.614C-0.487402 52.2214 -0.487402 33.7785 1.47783 15.3859C2.26729 8.04566 8.06221 2.25073 15.3856 1.47808C33.7782 -0.487158 52.2212 -0.487158 70.6138 1.47808C77.954 2.26753 83.7489 8.06245 84.5216 15.3859C86.4868 33.7785 86.4868 52.2214 84.5216 70.614C83.7489 77.9543 77.954 83.7492 70.6138 84.5218Z" fill="#FFFCF8"/>
<path d="M67.5906 79.9867C51.2137 81.7336 34.7695 81.7336 18.3926 79.9867C11.8754 79.2813 6.71875 74.1246 6.01328 67.5906C4.26641 51.2137 4.26641 34.7695 6.01328 18.3926C6.71875 11.8754 11.8754 6.71875 18.4094 6.01328C34.7863 4.26641 51.2305 4.26641 67.6074 6.01328C74.1414 6.71875 79.298 11.8754 80.0035 18.4094C81.7504 34.7863 81.7504 51.2305 80.0035 67.6074C79.2812 74.1246 74.1246 79.2813 67.5906 79.9867Z" fill="url(#paint0_linear_5507_797)"/>
<path opacity="0.5" d="M70.6138 84.5218C52.2212 86.4871 33.7782 86.4871 15.3856 84.5218C8.04541 83.7324 2.25049 77.9543 1.47783 70.614C-0.487402 52.2214 -0.487402 33.7785 1.47783 15.3859C2.26729 8.04566 8.06221 2.25073 15.3856 1.47808C33.7782 -0.487158 52.2212 -0.487158 70.6138 1.47808C77.954 2.26753 83.7489 8.06245 84.5216 15.3859C86.4868 33.7785 86.4868 52.2214 84.5216 70.614C83.7489 77.9543 77.954 83.7492 70.6138 84.5218Z" fill="url(#paint1_linear_5507_797)"/>
<path d="M56.2027 26.5056C54.5734 24.3556 53.5992 21.6849 53.5992 18.779H53.5656V18.7622H51.3652C51.9867 21.9032 53.7336 24.6411 56.2027 26.5056Z" fill="#F00044"/>
<path d="M35.3404 43.9574C31.1748 43.9574 27.8154 47.3335 27.8154 51.4824C27.8154 54.1867 29.2432 56.5718 31.3932 57.8988C30.6877 56.7566 30.2846 55.396 30.2846 53.9515C30.2846 49.7859 33.6607 46.4265 37.8096 46.4265C38.6326 46.4265 39.4389 46.5609 40.1779 46.8128V38.3808C39.4053 38.2632 38.6158 38.196 37.8096 38.196C37.776 38.196 37.7424 38.196 37.7088 38.196V44.3437C36.9529 44.0917 36.1635 43.9574 35.3404 43.9574V43.9574Z" fill="#F00044"/>
<path d="M66.4152 31.5782C65.5754 31.5782 64.7523 31.4942 63.9629 31.343V37.3395C61.1242 37.3395 58.3695 36.7852 55.766 35.6766C54.0863 34.9711 52.541 34.0641 51.1133 32.9555V51.5497H51.0965C51.0797 55.7321 49.4504 59.6625 46.4773 62.6188C44.0754 65.0207 41.0184 66.5661 37.7094 67.0532C36.9367 67.1707 36.1473 67.2211 35.341 67.2211C31.7129 67.2211 28.2863 66.0118 25.498 63.7778C25.8676 64.2313 26.2539 64.668 26.657 65.0879C29.6301 68.0778 33.5941 69.7071 37.7934 69.7071C38.5996 69.7071 39.3891 69.6399 40.1617 69.5391C43.4707 69.0352 46.5277 67.5067 48.9297 65.1047C51.8859 62.1485 53.532 58.218 53.5488 54.0356H53.5656V35.4247C54.9934 36.5332 56.5555 37.4403 58.2184 38.1458C60.8219 39.2543 63.5766 39.8086 66.4152 39.8086V31.5782Z" fill="url(#paint2_linear_5507_797)"/>
<path d="M63.9455 31.3429V29.1089C61.0397 29.1089 58.3521 28.1347 56.2021 26.5054C58.0666 28.9577 60.8045 30.7214 63.9455 31.3429Z" fill="#08FFF9"/>
<path d="M37.7932 61.4766C38.6162 61.4766 39.4225 61.3422 40.1615 61.0902C43.1514 60.0992 45.3182 57.2773 45.3182 53.9516L45.335 41.4883V18.7621H51.365C51.2139 17.9727 51.1299 17.1496 51.1299 16.3098H51.0963V16.293H42.8826V39.0359L42.8658 51.4992C42.8658 54.825 40.699 57.6469 37.7092 58.6379C36.9701 58.8898 36.1639 59.0242 35.3408 59.0242C33.8963 59.0242 32.5357 58.6211 31.3936 57.9156C32.7205 60.0488 35.0889 61.4766 37.7932 61.4766V61.4766Z" fill="url(#paint3_linear_5507_797)"/>
<path d="M26.6566 42.8153C29.6129 39.8591 33.5266 38.2298 37.6922 38.1962V35.9118C36.9195 35.7942 36.1301 35.7271 35.3238 35.7271C31.1078 35.7271 27.1605 37.3731 24.1875 40.3462C21.2145 43.3192 19.5684 47.2833 19.5684 51.4825C19.5684 55.6817 21.2145 59.6458 24.1875 62.6188C24.6074 63.0388 25.0441 63.4251 25.4977 63.7778C23.2637 60.9896 22.0543 57.563 22.0543 53.9349C22.0543 49.7524 23.6836 45.7884 26.6566 42.8153V42.8153Z" fill="#08FFF9"/>
<path d="M37.692 67.07C41.001 66.5661 44.058 65.0376 46.46 62.6356C49.4162 59.6794 51.0623 55.7489 51.0791 51.5665H51.0959V32.9556C52.5236 34.0642 54.0857 34.9712 55.7486 35.6767C58.3521 36.7852 61.1068 37.3395 63.9455 37.3395V31.3431C60.8045 30.7384 58.0666 28.9747 56.1854 26.5056C53.733 24.6411 51.9693 21.9032 51.3479 18.7622H45.3178V41.5052L45.301 53.9684C45.301 57.2942 43.1342 60.1161 40.1443 61.1071C39.4053 61.3591 38.599 61.4934 37.776 61.4934C35.0717 61.4934 32.6865 60.0657 31.3596 57.9157C29.2096 56.5888 27.7818 54.2204 27.7818 51.4993C27.7818 47.3337 31.158 43.9743 35.3068 43.9743C36.1299 43.9743 36.9361 44.1087 37.6752 44.3606V38.2298C33.5096 38.2466 29.5959 39.8927 26.6396 42.8489C23.6666 45.822 22.0205 49.786 22.0205 53.9852C22.0205 57.5966 23.2299 61.0399 25.4639 63.8282C28.2521 66.0622 31.6787 67.2716 35.3068 67.2716C36.1299 67.238 36.9193 67.1876 37.692 67.07Z" fill="black"/>
<defs>
<linearGradient id="paint0_linear_5507_797" x1="10.0207" y1="10.021" x2="75.9792" y2="75.9795" gradientUnits="userSpaceOnUse">
<stop stop-color="#E8EBEE"/>
<stop offset="1" stop-color="#E8EBEE" stop-opacity="0"/>
</linearGradient>
<linearGradient id="paint1_linear_5507_797" x1="43.0006" y1="69.8881" x2="43.0006" y2="84.4175" gradientUnits="userSpaceOnUse">
<stop stop-color="#94A1B2" stop-opacity="0"/>
<stop offset="1" stop-color="#94A1B2"/>
</linearGradient>
<linearGradient id="paint2_linear_5507_797" x1="41.125" y1="42.9236" x2="56.1171" y2="57.9157" gradientUnits="userSpaceOnUse">
<stop stop-color="#F00044"/>
<stop offset="1" stop-color="#C70038"/>
</linearGradient>
<linearGradient id="paint3_linear_5507_797" x1="31.5857" y1="27.5781" x2="53.204" y2="49.1964" gradientUnits="userSpaceOnUse">
<stop stop-color="#08FFF9"/>
<stop offset="1" stop-color="#07D4CF"/>
</linearGradient>
</defs>
</svg>

<svg width="86" height="86" fill="none" xmlns="http://www.w3.org/2000/svg"><path d="M70.614 84.522a259.404 259.404 0 01-55.228 0c-7.34-.79-13.136-6.568-13.908-13.908a259.412 259.412 0 010-55.228c.79-7.34 6.584-13.135 13.908-13.908a259.413 259.413 0 0155.228 0c7.34.79 13.135 6.584 13.908 13.908a259.417 259.417 0 010 55.228 15.625 15.625 0 01-13.908 13.908z" fill="#FFFCF8"/><path d="M67.59 79.987a231.583 231.583 0 01-49.197 0 13.973 13.973 0 01-12.38-12.396 231.587 231.587 0 010-49.198 13.973 13.973 0 0112.396-12.38 231.587 231.587 0 0149.198 0A13.974 13.974 0 0180.004 18.41a231.583 231.583 0 010 49.198 14.005 14.005 0 01-12.413 12.38z" fill="url(#paint0_linear_5507_797)"/><path opacity=".5" d="M70.614 84.522a259.404 259.404 0 01-55.228 0c-7.34-.79-13.136-6.568-13.908-13.908a259.412 259.412 0 010-55.228c.79-7.34 6.584-13.135 13.908-13.908a259.413 259.413 0 0155.228 0c7.34.79 13.135 6.584 13.908 13.908a259.417 259.417 0 010 55.228 15.625 15.625 0 01-13.908 13.908z" fill="url(#paint1_linear_5507_797)"/><path d="M56.203 26.506a12.743 12.743 0 01-2.604-7.727h-.033v-.017h-2.2a12.807 12.807 0 004.837 7.744zM35.34 43.957a7.523 7.523 0 00-7.525 7.525 7.535 7.535 0 003.578 6.417 7.504 7.504 0 01-1.108-3.947 7.523 7.523 0 017.525-7.526c.823 0 1.629.135 2.368.387V38.38a15.715 15.715 0 00-2.368-.185h-.101v6.148a7.444 7.444 0 00-2.369-.387z" fill="#F00044"/><path d="M66.415 31.578c-.84 0-1.663-.084-2.452-.235v5.997a20.79 20.79 0 01-8.197-1.663 20.469 20.469 0 01-4.653-2.721V51.55h-.017c-.016 4.182-1.646 8.113-4.619 11.069-2.402 2.402-5.459 3.947-8.768 4.434-.772.118-1.562.168-2.368.168-3.628 0-7.055-1.21-9.843-3.443.37.453.756.89 1.159 1.31 2.973 2.99 6.937 4.62 11.136 4.62.807 0 1.596-.068 2.369-.169a15.695 15.695 0 008.768-4.434 15.654 15.654 0 004.619-11.07h.017v-18.61a20.844 20.844 0 004.652 2.72 20.79 20.79 0 008.197 1.664v-8.23z" fill="url(#paint2_linear_5507_797)"/><path d="M63.946 31.343v-2.234a12.79 12.79 0 01-7.744-2.604 12.883 12.883 0 007.744 4.838z" fill="#08FFF9"/><path d="M37.793 61.477c.823 0 1.63-.135 2.368-.387 2.99-.99 5.157-3.813 5.157-7.138l.017-12.464V18.762h6.03a13.06 13.06 0 01-.235-2.452h-.034v-.017h-8.213v22.743l-.017 12.463c0 3.326-2.167 6.148-5.157 7.139a7.37 7.37 0 01-2.368.386 7.503 7.503 0 01-3.947-1.108 7.53 7.53 0 006.4 3.56z" fill="url(#paint3_linear_5507_797)"/><path d="M26.657 42.815a15.676 15.676 0 0111.035-4.619v-2.284a15.64 15.64 0 00-13.505 4.434 15.669 15.669 0 00-4.619 11.137c0 4.199 1.646 8.163 4.62 11.136.42.42.856.806 1.31 1.159a15.638 15.638 0 01-3.444-9.843c0-4.183 1.63-8.147 4.603-11.12z" fill="#08FFF9"/><path d="M37.692 67.07a15.695 15.695 0 008.768-4.434 15.654 15.654 0 004.62-11.07h.016v-18.61a20.837 20.837 0 004.653 2.72 20.79 20.79 0 008.197 1.663v-5.996a12.812 12.812 0 01-7.76-4.837 12.882 12.882 0 01-4.838-7.744h-6.03v22.743L45.3 53.968c0 3.326-2.167 6.148-5.157 7.14a7.367 7.367 0 01-2.368.385 7.535 7.535 0 01-6.416-3.577 7.514 7.514 0 01-3.578-6.417 7.523 7.523 0 017.525-7.525c.823 0 1.63.135 2.368.387V38.23c-4.165.017-8.08 1.663-11.035 4.619a15.67 15.67 0 00-4.62 11.136c0 3.612 1.21 7.055 3.444 9.843a15.638 15.638 0 009.843 3.444c.823-.034 1.612-.084 2.385-.202z" fill="#000"/><defs><linearGradient id="paint0_linear_5507_797" x1="10.021" y1="10.021" x2="75.979" y2="75.98" gradientUnits="userSpaceOnUse"><stop stop-color="#E8EBEE"/><stop offset="1" stop-color="#E8EBEE" stop-opacity="0"/></linearGradient><linearGradient id="paint1_linear_5507_797" x1="43.001" y1="69.888" x2="43.001" y2="84.418" gradientUnits="userSpaceOnUse"><stop stop-color="#94A1B2" stop-opacity="0"/><stop offset="1" stop-color="#94A1B2"/></linearGradient><linearGradient id="paint2_linear_5507_797" x1="41.125" y1="42.924" x2="56.117" y2="57.916" gradientUnits="userSpaceOnUse"><stop stop-color="#F00044"/><stop offset="1" stop-color="#C70038"/></linearGradient><linearGradient id="paint3_linear_5507_797" x1="31.586" y1="27.578" x2="53.204" y2="49.196" gradientUnits="userSpaceOnUse"><stop stop-color="#08FFF9"/><stop offset="1" stop-color="#07D4CF"/></linearGradient></defs></svg>
